remix/Document/file-shield-fill.svg

<svg viewBox="0 0 24 24" fill="currentColor" xmlns="http://www.w3.org/2000/svg"><path d="M21 7V20.9925C21 21.5511 20.5552 22 20.0066 22H3.9934C3.44495 22 3 21.556 3 21.0082V2.9918C3 2.45531 3.44694 2 3.99826 2H15.9968L21 7ZM8 8V13.6002C8 14.4496 8.4456 15.2427 9.18747 15.7138L12 17.5L14.8125 15.7138C15.5544 15.2427 16 14.4496 16 13.6002V8H8ZM10 10H14V13.6002C14 13.7579 13.9103 13.9176 13.7403 14.0255L12 15.1308L10.2597 14.0255C10.0897 13.9176 10 13.7579 10 13.6002V10Z"/></svg>

<svg viewBox="0 0 24 24" xmlns="http://www.w3.org/2000/svg"><path fill="none" d="M0 0h24v24H0Z"/><path d="M21 7v13.99h0c0 .55-.45 1-1 1 -.01 0-.01 0-.01 0H3.97v-.001c-.55 0-1-.45-1-1V2.97c0-.54.44-1 .99-1h11.999l5.003 5ZM8 8v5.6c0 .85.44 1.64 1.18 2.11l2.81 1.78 2.81-1.79 0-.001c.73-.46 1.18-1.26 1.18-2.12v-5.6h-8Zm2 2h4v3.6c0 .15-.09.31-.26.42L12 15.12l-1.74-1.11c-.17-.11-.26-.27-.26-.43v-3.6Z"/></svg>
